X:1
T:Title
%%score 1 { 2 | 3 }
L:1/8
Q:1/4=140
M:6/4
K:Ab
V:1 treble nm="Grand Piano, Soprano"
V:2 bass nm="Choir Pad, Under His Wings (Oatman)"
V:3 bass 
V:1
 E2 [Ec]3 [Ec] [Ec]2 [CA]2 [DB]2 | [Ec]2 [DB]4- [DB]2 [DF]4 | [DF]2 [=DF]3 [DB] [DB]2 [DB]2 [DB]2 | %3
w: By~Tali~Esen~Morgan * * * * *|||
 [=Dc]2 [_DB]4- [DB]4- [DB]3/2 z/ | [DE]2 [Cc]3 [Ec] [Ec]2 [_Gc]2 [Gd]2 | [_Gc]2 [FB]4- [FB]2 F4 | %6
w: |||
 [Fd]2 [Ec]4 [CA]2 [=DB]2 [DF]2 | [DG]2 [CA]4- [CA]4- [CA]3/2 z/ | z2 [Ec]3 [=D_c] [E=c]2 [CE]4 | %9
w: |||
 [EA]2 [EA]4- [EA]2 [EG]4- | [EG]2 [Ed]3 [Ec] [Ed]2 [DF]4 | [DG]2 [DF]4- [DF]2 [CE]4- | %12
w: |||
 [CE]2 [EA]3 [EG] [EA]2 [GB]4 | [GB]2 [GB]2 [FA]2 [GB]2 [Ac]4 | [Ad]2 [Ac]4 [FA]2 [FB]2 F2 | %15
w: |||
 [EG]2 [EA]4- [EA]4- [EA]3/2 z/ |] %16
w: |
V:2
 E,2 A,3 A, A,2 A,2 A,2 | A,2 F,4- F,2 A,4 | A,2 B,3 F, F,2 A,2 A,2 | A,2 G,4- G,4- G,3/2 z/ | %4
 G,2 A,3 A, A,2[K:treble] E2 E2 | E2 D4- D2 D4 | A,2 A,4 F,2 F,2 B,2 | B,2 A,4- A,4- A,3/2 z/ | %8
 z2 A,3 A, A,2 A,4 | A,2[K:treble] C2 B,2 C2 D4 | C2[K:bass] B,3 =A, B,2 B,4 | %11
 B,2 B,2 F,2 G,2 A,4- | A,2[K:treble] C3 B, C2 E4 | D2 D2 C2 E2 E4 | F2 E4 C2 =D2 D2 | %15
 D2 C4- C4- C3/2 z/ |] %16
V:3
 z2 A,,3 A,, A,,2 A,,2 A,,2 | A,,2 D,4- D,2 D,4 | D,2 B,,3 B,, B,,2 B,,2 B,,2 | %3
 B,,2 E,4- E,4- E,3/2 z/ | E,2 A,,3 A,, A,,2 A,,2 B,,2 | C,2 D,4- D,2 D,4 | D,2 E,4 z2 B,,2 B,,2 | %7
 E,2 A,,4- A,,4- A,,3/2 z/ | z6 z2 A,,4 | C,2 E,4- E,3/2 z/ E,4- | E,2 E,3 E, E,2 E,4 | %11
 E,2 A,,4- A,,3/2 z/ A,,4- | A,,2 A,3 A, A,2 E,4 | E,2 E,2 F,2 E,2 A,4 | D,2 E,4 F,2 B,,2 B,,2 | %15
 E,2 A,,4- A,,4- A,,3/2 z/ |] %16

